Papirus-GTK/32x32/apps/cs-panel.svg

<svg height="32" viewBox="0 0 32 32.000001" width="32" xmlns="http://www.w3.org/2000/svg"><path d="m3.4003906 4c-.7756 0-1.4003906.6191719-1.4003906 1.3886719v1.3886719 19.2226562h28v-19.2226562-1.3886719c0-.7695-.624791-1.3886719-1.400391-1.3886719z" fill="#4ab3e4"/><path d="m3.4 29c-.7756 0-1.4-.6194-1.4-1.3889v-1.6111h28v1.6111c0 .7695-.6244 1.3889-1.4 1.3889z" fill="#4d4d4d"/><path d="m3.4004 4c-.7756 0-1.4004.6192-1.4004 1.3887v1c0-.7695.6248-1.3887 1.4004-1.3887h25.2c.775 0 1.4.6192 1.4 1.3887v-1c0-.7695-.625-1.3887-1.4-1.3887z" fill="#fff" opacity=".1"/><path d="m2 26.611328v1c0 .7695.6247906 1.388672 1.4003906 1.388672h25.1992184c.7756 0 1.400391-.619172 1.400391-1.388672v-1c0 .7695-.624791 1.388672-1.400391 1.388672h-25.1992184c-.7756 0-1.4003906-.619172-1.4003906-1.388672z" opacity=".3"/></svg>

<?xml version="1.0" encoding="UTF-8" standalone="no"?>
<!-- Created with Inkscape (http://www.inkscape.org/) -->

<svg
   xmlns:dc="http://purl.org/dc/elements/1.1/"
   xmlns:cc="http://creativecommons.org/ns#"
   xmlns:rdf="http://www.w3.org/1999/02/22-rdf-syntax-ns#"
   xmlns:svg="http://www.w3.org/2000/svg"
   xmlns="http://www.w3.org/2000/svg"
   xmlns:sodipodi="http://sodipodi.sourceforge.net/DTD/sodipodi-0.dtd"
   xmlns:inkscape="http://www.inkscape.org/namespaces/inkscape"
   id="svg4222"
   height="32"
   width="32"
   version="1.1"
   viewBox="0 0 32 32.000001"
   inkscape:version="0.91 r13725"
   sodipodi:docname="cs-panel.svg">
  <defs
     id="defs10" />
  <sodipodi:namedview
     pagecolor="#ffffff"
     bordercolor="#666666"
     borderopacity="1"
     objecttolerance="10"
     gridtolerance="10"
     guidetolerance="10"
     inkscape:pageopacity="0"
     inkscape:pageshadow="2"
     inkscape:window-width="1600"
     inkscape:window-height="843"
     id="namedview8"
     showgrid="false"
     inkscape:zoom="19.67627"
     inkscape:cx="16"
     inkscape:cy="16"
     inkscape:window-x="0"
     inkscape:window-y="0"
     inkscape:window-maximized="1"
     inkscape:current-layer="svg4222" />
  <metadata
     id="metadata4227">
    <rdf:RDF>
      <cc:Work
         rdf:about="">
        <dc:format>image/svg+xml</dc:format>
        <dc:type
           rdf:resource="http://purl.org/dc/dcmitype/StillImage" />
        <dc:title />
      </cc:Work>
    </rdf:RDF>
  </metadata>
  <path
     style="fill:#4ab3e4"
     d="M 3.4003906 4 C 2.6247906 4 2 4.6191719 2 5.3886719 L 2 6.7773438 L 2 26 L 30 26 L 30 6.7773438 L 30 5.3886719 C 30 4.6191719 29.375209 4 28.599609 4 L 3.4003906 4 z "
     id="rect4203" />
  <path
     style="fill:#4d4d4d"
     inkscape:connector-curvature="0"
     d="M 3.4,29 C 2.6244,29 2,28.3806 2,27.6111 L 2,26 l 28,0 0,1.6111 C 30,28.3806 29.3756,29 28.6,29 Z"
     id="rect3328" />
  <path
     style="opacity:0.1;fill:#ffffff"
     inkscape:connector-curvature="0"
     d="M 3.4004,4 C 2.6248,4 2,4.6192 2,5.3887 l 0,1 C 2,5.6192 2.6248,5 3.4004,5 l 25.2,0 c 0.775,0 1.4,0.6192 1.4,1.3887 l 0,-1 C 30.0004,4.6192 29.3754,4 28.6004,4 l -25.2,0 z"
     id="path4144" />
  <path
     style="fill:#000000;fill-opacity:1;opacity:0.3"
     d="M 2 26.611328 L 2 27.611328 C 2 28.380828 2.6247906 29 3.4003906 29 L 28.599609 29 C 29.375209 29 30 28.380828 30 27.611328 L 30 26.611328 C 30 27.380828 29.375209 28 28.599609 28 L 3.4003906 28 C 2.6247906 28 2 27.380828 2 26.611328 z "
     id="path4145" />
</svg>
